X:1270
T: Fair Haired Lad
S: "Roche Collection of Traditional Irish Music" [III/34/110]
L: 1/8
M: 4/4
R: hornpipe
K: Ador
G | EAAE GABd | ef/e/ dB cABG |
EAAE GABd | ef/e/ dB A2 A :|
f | gfed Bded | Bdef g2 fg |
afed Beee | ef/e/ dB A2 Af |
gfed Bded | Bd ef g2 fg |
(3agf (3gfe fd Bd | ef/e/ dB A2 A ||
